packages/ffe-icons/icons/filled/sm/videogame_asset_off.svg

<svg xmlns="http://www.w3.org/2000/svg" height="20" viewBox="0 -960 960 960" width="20"><path d="M180.309-260.001q-27.008 0-45.658-18.65-18.65-18.65-18.65-45.797v-311.243q0-25.886 18.808-43.405 18.807-17.518 44.73-17.518h84.265l323.195 323.613h-73.536l-377.771-377.77q-8.229-8.229-8.421-18.665-.192-10.436 8.115-18.41 7.974-8.307 18.218-8.307 10.243 0 18.63 8.387l615.532 615.532q8.003 8.003 8.195 18.146.192 10.143-8.115 18.087-7.974 8.307-18.218 8.307-10.243 0-18.55-8.307l-124.616-124H180.309Zm637.587-22.055q-11.205 4.67-23.243 4.055-12.039-.615-22.969-11.546l-355.991-355.99q-6.846-6.847-8.154-16.135-1.307-9.288 2.352-18.384 2.802-9.096 10.437-14.52 7.634-5.423 18.288-5.423h341.075q27.008 0 45.658 18.65 18.65 18.65 18.65 45.797v311.243q0 15.211-7.579 26.197-7.578 10.986-18.524 16.056ZM696.045-577.999q-20.814 0-35.429 14.57-14.615 14.57-14.615 35.384t14.57 35.429q14.57 14.615 35.384 14.615t35.429-14.57q14.615-14.57 14.615-35.384t-14.57-35.429q-14.57-14.615-35.384-14.615ZM300.001-454.001V-396q0 11.05 7.418 18.524 7.418 7.475 18.384 7.475 10.966 0 18.581-7.475 7.615-7.474 7.615-18.524v-58.001H412q10.2 0 17.099-6.903 6.9-6.904 6.9-17.109 0-10.206-6.9-17.096-6.899-6.89-17.099-6.89h-58.001V-559q0-10.75-8.128-18.875-8.129-8.124-18.884-8.124-10.756 0-18.871 8.124-8.115 8.125-8.115 18.875v53.001H242q-11.05 0-18.524 7.418-7.475 7.418-7.475 18.384 0 10.966 7.475 18.581 7.474 7.615 18.524 7.615h58.001Z"/></svg>

<svg xmlns="http://www.w3.org/2000/svg" height="20" viewBox="0 -960 960 960" width="20"><path d="M180.31-260q-27.01 0-45.66-18.65Q116-297.3 116-324.45v-311.24q0-25.89 18.81-43.41 18.81-17.51 44.73-17.51h84.26L587-373h-73.54L135.69-750.77q-8.23-8.23-8.42-18.67-.19-10.43 8.12-18.41 7.97-8.3 18.21-8.3 10.25 0 18.63 8.38l615.54 615.54q8 8 8.19 18.14.19 10.14-8.11 18.09-7.98 8.31-18.22 8.31-10.24 0-18.55-8.31L626.46-260H180.31Zm637.59-22.06q-11.21 4.67-23.25 4.06-12.04-.62-22.97-11.55L415.69-645.54q-6.84-6.84-8.15-16.13-1.31-9.29 2.35-18.39 2.8-9.09 10.44-14.52 7.63-5.42 18.29-5.42h341.07q27.01 0 45.66 18.65Q844-662.7 844-635.55v311.24q0 15.21-7.58 26.2-7.58 10.98-18.52 16.05ZM696.05-578q-20.82 0-35.43 14.57Q646-548.86 646-528.05q0 20.82 14.57 35.43Q675.14-478 695.95-478q20.82 0 35.43-14.57Q746-507.14 746-527.95q0-20.82-14.57-35.43Q716.86-578 696.05-578ZM300-454v58q0 11.05 7.42 18.52 7.42 7.48 18.38 7.48 10.97 0 18.58-7.48Q352-384.95 352-396v-58h60q10.2 0 17.1-6.9 6.9-6.91 6.9-17.11 0-10.21-6.9-17.1Q422.2-502 412-502h-58v-57q0-10.75-8.13-18.87-8.13-8.13-18.88-8.13-10.76 0-18.87 8.13Q300-569.75 300-559v53h-58q-11.05 0-18.52 7.42-7.48 7.42-7.48 18.38 0 10.97 7.48 18.58Q230.95-454 242-454h58Z"/></svg>
